app/dist/common/images/battery-future-acquisition.svg

<svg height="18" viewBox="0 0 18 18" width="18" xmlns="http://www.w3.org/2000/svg"><path d="m0 0h18v18h-18z" fill="#f0f3fa"/><path d="m9 15a6 6 0 1 0 0-12 6 6 0 0 0 0 12zm0-.5a5.5 5.5 0 1 0 0-11 5.5 5.5 0 0 0 0 11z" fill="#c1c1c1" fill-rule="evenodd"/><path d="m12.2 12.84a5 5 0 1 1 -.03-7.7l-.96 1.15a3.5 3.5 0 1 0 .04 5.4z" fill="#4069b2"/><path d="m9 9v1.5h.5v-1.5h1.5v-.5h-1.5v-1.5h-.5v1.5h-1.5v.5z" fill="#434a4f"/></svg>

<!-- by TradingView --><svg width="18" height="18" viewBox="0 0 18 18" xmlns="http://www.w3.org/2000/svg"><path fill="#F0F3FA" d="M0 0h18v18H0z"/><path fill-rule="evenodd" d="M9 15A6 6 0 1 0 9 3a6 6 0 0 0 0 12Zm0-.5a5.5 5.5 0 1 0 0-11 5.5 5.5 0 0 0 0 11Z" fill="#C1C1C1"/><path d="M12.2 12.84a5 5 0 1 1-.03-7.7l-.96 1.15a3.5 3.5 0 1 0 .04 5.4l.95 1.15Z" fill="#4069B2"/><path d="M9 9v1.5h.5V9H11v-.5H9.5V7H9v1.5H7.5V9H9Z" fill="#434A4F"/></svg>
